X: 305593
M: 6/8
L: 1/8
K: D
d2f e2g | f2d (cBA) | d2f e2g | f2a a2A |\
d2f e2g | f2d cBA | B2d c2B | A2d d2 :|
|: B |\


